actions/symbolic/align-vertical-top-to-anchor-symbolic.svg

<?xml version="1.0" encoding="UTF-8" standalone="no"?>
<svg
   xmlns:dc="http://purl.org/dc/elements/1.1/"
   xmlns:cc="http://creativecommons.org/ns#"
   xmlns:rdf="http://www.w3.org/1999/02/22-rdf-syntax-ns#"
   xmlns:svg="http://www.w3.org/2000/svg"
   xmlns="http://www.w3.org/2000/svg"
   id="svg1328"
   version="1.1"
   viewBox="0 0 4.2333332 4.2333335"
   height="16"
   width="16">
  <defs
     id="defs1322" />
  <metadata
     id="metadata1325">
    <rdf:RDF>
      <cc:Work
         rdf:about="">
        <dc:format>image/svg+xml</dc:format>
        <dc:type
           rdf:resource="http://purl.org/dc/dcmitype/StillImage" />
        <dc:title></dc:title>
      </cc:Work>
    </rdf:RDF>
  </metadata>
  <path
     id="rect941"
     d="M 4.2333334,1.3229166 H 3.9687501 V 0.1322917 C 3.9687501,0.0590017 3.9097481,0 3.8364584,0 H 2.7781251 C 2.7048351,0 2.6458334,0.059002 2.6458334,0.1322917 V 1.3229166 H 1e-7 v 0.5291667 h 0.5291667 v 2.2489583 c 0,0.07329 0.058992,0.1322917 0.1322916,0.1322917 h 1.0583334 c 0.0733,0 0.1322916,-0.059002 0.1322916,-0.1322917 V 1.8520833 h 0.2645834 v 1.4552083 c 0,0.07329 0.059002,0.1322917 0.1322916,0.1322917 h 1.0583334 c 0.0733,0 0.1322916,-0.059002 0.1322916,-0.1322917 V 1.8520833 h 0.79375 z M 3.7041667,0.2645833 V 1.3229166 H 2.9104168 V 0.2645833 Z m -0.5291666,1.5875 V 3.175 h -0.79375 V 1.8520833 Z m -1.5875,0 V 3.96875 h -0.79375 V 1.8520833 Z"
     style="opacity:1;vector-effect:none;fill:#555761;fill-opacity:1;stroke:none;stroke-width:0.26458329;stroke-linecap:butt;stroke-linejoin:round;stroke-miterlimit:3;stroke-dasharray:none;stroke-dashoffset:0;stroke-opacity:1;marker:none;paint-order:normal" />
  <rect
     transform="rotate(90)"
     ry="0"
     rx="0"
     y="-3.7041667"
     x="0.26458341"
     height="0.79374999"
     width="1.3229166"
     id="rect941-3"
     style="opacity:0.3;vector-effect:none;fill:#555761;fill-opacity:0.93140791;stroke:none;stroke-width:0.26458329;stroke-linecap:butt;stroke-linejoin:round;stroke-miterlimit:3;stroke-dasharray:none;stroke-dashoffset:0;stroke-opacity:1;marker:none;paint-order:normal" />
  <path
     style="opacity:0.1;fill:#555761;fill-opacity:0.93140791;stroke:none;stroke-width:0.26458329;stroke-linejoin:round;stroke-miterlimit:3"
     d="m 3.1750034,1.5875 h -0.79375 v 1.5874999 h 0.79375 z m -1.5875,0 H 0.7937535 v 2.3812499 h 0.7937499 z"
     id="path41-2-3-6-5-4" />
</svg>

<svg
        xmlns='http://www.w3.org/2000/svg'
        xmlns:svg='http://www.w3.org/2000/svg'
        id='svg1328'
        width='16'
        height='16'
        viewBox='0 0 4.23333 4.23333'>
  <path
          id='rect941'
          opacity='1'
          fill='url(#gpa:foreground) #555761'
          fill-opacity='1'
          fill-rule='nonzero'
          stroke='none'
          stroke-opacity='1'
          stroke-width='0.264583'
          stroke-linecap='butt'
          stroke-linejoin='round'
          stroke-miterlimit='3'
          stroke-dasharray='none'
          stroke-dashoffset='0'
          marker-start='none'
          marker-mid='none'
          marker-end='none'
          paint-order='normal'
          d='M 4.23333 1.32292 L 3.96875 1.32292 L 3.96875 0.132292 C 3.96875 0.0590017, 3.90975 0, 3.83646 0 L 2.77813 0 C 2.70484 0, 2.64583 0.059002, 2.64583 0.132292 L 2.64583 1.32292 L 1e-07 1.32292 L 1e-07 1.85208 L 0.529167 1.85208 L 0.529167 4.10104 C 0.529167 4.17433, 0.588159 4.23333, 0.661458 4.23333 L 1.71979 4.23333 C 1.79309 4.23333, 1.85208 4.17433, 1.85208 4.10104 L 1.85208 1.85208 L 2.11667 1.85208 L 2.11667 3.30729 C 2.11667 3.38058, 2.17567 3.43958, 2.24896 3.43958 L 3.30729 3.43958 C 3.38059 3.43958, 3.43958 3.38058, 3.43958 3.30729 L 3.43958 1.85208 L 4.23333 1.85208 Z M 3.70417 0.264583 L 3.70417 1.32292 L 2.91042 1.32292 L 2.91042 0.264583 Z M 3.175 1.85208 L 3.175 3.175 L 2.38125 3.175 L 2.38125 1.85208 Z M 1.5875 1.85208 L 1.5875 3.96875 L 0.79375 3.96875 L 0.79375 1.85208 Z'
          class="foreground">
  </path>
  <rect
          id='rect941-3'
          transform='rotate(90, 0, 0)'
          opacity='1'
          fill='url(#gpa:foreground) #555761'
          fill-opacity='0.3'
          fill-rule='nonzero'
          stroke='none'
          stroke-opacity='1'
          stroke-width='0.264583'
          stroke-linecap='butt'
          stroke-linejoin='round'
          stroke-miterlimit='3'
          stroke-dasharray='none'
          stroke-dashoffset='0'
          marker-start='none'
          marker-mid='none'
          marker-end='none'
          paint-order='normal'
          x='0.264583'
          y='-3.70417'
          width='1.32292'
          height='0.79375'
          rx='0'
          ry='0'
          class="foreground">
  </rect>
  <path
          id='path41-2-3-6-5-4'
          opacity='1'
          fill='url(#gpa:foreground) #555761'
          fill-opacity='0.1'
          fill-rule='nonzero'
          stroke='none'
          stroke-width='0.264583'
          stroke-linejoin='round'
          stroke-miterlimit='3'
          d='M 3.175 1.5875 L 2.38125 1.5875 L 2.38125 3.175 L 3.175 3.175 Z M 1.5875 1.5875 L 0.793754 1.5875 L 0.793754 3.96875 L 1.5875 3.96875 Z'
          class="foreground">
  </path>
</svg>
